fs/panel_right_20_regular.svg

<svg viewBox="0 0 20 20" fill="none" xmlns="http://www.w3.org/2000/svg" height="1em" width="1em">
  <path d="M15.9993 4.0003C17.1042 3.98107 18 4.89573 18 6.0003V14.0003C18 15.1049 17.1042 16.0003 15.9993 16.0003H4.00073C2.89576 16.0003 2 15.1049 2 14.0003V6.0003C2 4.89573 2.89576 4.0003 4.00073 4.0003L15.9993 4.0003ZM16.9996 6.0003C16.9996 5.44801 16.5518 5.0003 15.9993 5.0003H13.0055L13.0055 15.0003H15.9993C16.5518 15.0003 16.9996 14.5526 16.9996 14.0003V6.0003ZM12.0051 15.0003L12.0051 5.0003H4.00073C3.44825 5.0003 3.00037 5.44801 3.00037 6.0003V14.0003C3.00037 14.5526 3.44825 15.0003 4.00073 15.0003H12.0051Z" fill="#212121"/>
</svg>

<svg viewBox="0 0 20 20" fill="none" xmlns="http://www.w3.org/2000/svg" height="1em" width="1em">
  <path d="M16 4c1.104-.019 2 .896 2 2v8a2 2 0 0 1-2 2H4a2 2 0 0 1-2-2V6a2 2 0 0 1 2-2h12Zm1 2a1 1 0 0 0-1-1h-2.995v10H16a1 1 0 0 0 1-1V6Zm-4.995 9V5H4.001a1 1 0 0 0-1 1v8a1 1 0 0 0 1 1h8.004Z" fill="#212121"/>
</svg>
